hero/outline/user-circle.svg

<svg width="24" height="24" viewBox="0 0 24 24" fill="none" xmlns="http://www.w3.org/2000/svg">
<path d="M17.9815 18.7248C16.6121 16.9175 14.4424 15.75 12 15.75C9.55761 15.75 7.38789 16.9175 6.01846 18.7248M17.9815 18.7248C19.8335 17.0763 21 14.6744 21 12C21 7.02944 16.9706 3 12 3C7.02944 3 3 7.02944 3 12C3 14.6744 4.1665 17.0763 6.01846 18.7248M17.9815 18.7248C16.3915 20.1401 14.2962 21 12 21C9.70383 21 7.60851 20.1401 6.01846 18.7248M15 9.75C15 11.4069 13.6569 12.75 12 12.75C10.3431 12.75 9 11.4069 9 9.75C9 8.09315 10.3431 6.75 12 6.75C13.6569 6.75 15 8.09315 15 9.75Z" stroke="#0F172A" stroke-width="1.5" stroke-linecap="round" stroke-linejoin="round"/>
</svg>

<svg viewBox="0 0 24 24" xmlns="http://www.w3.org/2000/svg"><path fill="none" stroke="#000" stroke-linecap="round" stroke-linejoin="round" stroke-width="1.5" d="M17.98 18.72v0c-1.42-1.88-3.64-2.98-5.99-2.98v0c-2.36-.01-4.57 1.09-5.99 2.97m11.96 0v0C21.67 15.4 22 9.71 18.7 6c-3.31-3.72-9-4.05-12.71-.75 -3.72 3.3-4.05 8.99-.75 12.7 .23.26.48.51.74.74m11.96 0v0c-1.65 1.46-3.78 2.27-5.99 2.27h-.001c-2.21 0-4.34-.81-5.99-2.28m8.98-8.98v0c0 1.65-1.35 3-3 3 -1.66 0-3-1.35-3-3v0c0-1.66 1.34-3 3-3 1.65 0 3 1.34 3 3Z"/></svg>
